X:1
T:James Gibb editions
T:Quis dabit oculis - Senfl
T:#
%%score [ 1 2 3 4 ]
L:1/8
Q:1/4=100
M:2/2
K:C
V:1 treble nm="Soprano" snm="S"
V:2 treble nm="Alto" snm="A"
V:3 treble-8 nm="Tenor" snm="T"
V:4 bass nm="Bass" snm="B"
V:1
"^Quis dabit oculis""^Ludwig Senfl\n(1486-1542)" z8 | z8 | z8 | z8 | z8 | z8 | z8 | z8 | A8 | %9
w: ||||||||Quis|
 A4 A4 | B6 G2 | G4 B4 | A4 z2 A2 | A2 A2 G2 A2 | D8 | A8 | A4 G4- | G4 A4 | A8 | z2 E4 E2 | %20
w: da- bit|o- cu-|lis no-|stris fon-|tem la- cry- ma-|rum|et|plo- ra\-|* bi-|mus|co- ram|
 (G2 FE D4) | C4 E4 | (E4 F4 | D4) E4 | A4 (G2 F2- | FE E4) D2 | E8- | E8 | z8 | E4 E4- | %30
w: Do\- * * *|mi- no,|Do\- *|* mi-|no, Do\- *|* * * mi-|no?|||Ger- ma\-|
 E2 C2 C4 | E4 F4 | E4 G4- | G2 G2 c4 | B4 A4 | G8 | z4 G4- | G2 G2 G4- | G4 z4 | z8 | z4 z2 A2- | %41
w: * ni- a|quid plo-|ras? Mu\-|* si- ca,|cur si-|les?|Au\-|* stri- a,|||cur|
 A2 G2 A4 | B4 c4- | c2 B2 A4 | G4 A4 | z4 A4 | A4 G4 | F4 F4- | F2 E2 E4 | A4 A4 | G4 F4 | F6 E2 | %52
w: * in- du-|ta ve\-|* ste re-|pro- ba|moe-|ro- re|con- su\-|* me- ris,|moe- ro-|re con-|su- me-|
 E8 ||"^Second part" z8 | z8 | z8 | z8 | z8 | z8 | z8 | B8 | c4 A4 | B4 G4 | A4 z2 A2 | B2 B2 G4 | %65
w: ris?||||||||Heu|no- bis,|Do- mi-|ne Ma-|xi mi- li-|
 G4 G4 | z8 | z8 | z2 A3 A A2 | (G2 c3 BcA | B2) A4 ^G2 | A4 E4 | E6 E2 | E4 G4 | (F4 E4 | D4 C4 | %76
w: a- nus!|||Gau- di- um|cor\- * * * *|* dis no-|stri con-|ver- sum|est in|lu\- *||
 D8) ||[M:3/4] C4 z2 | A4 A2 | G2 A2 F2 | E4 z2 | c4 c2 | B2 A4 | ^G6 ||[M:2/2]"^Third part" E8 | %85
w: |ctum;|ce- ci-|dit co- ro-|na|ca- pi-|tis no-|stri.|Er-|
 G4 A4 | A2 A4 G2 | B6 A2 | A4 (G3 A | B2 c4) B2 | A4 z4 | z8 | z4 E4- | E4 G4 | A4 A4 | %95
w: go u-|lu- la- te,|pu- e-|ri, pu\- *|* * e-|ri,||plo\-|* ra-|te, sa-|
 G2 (A3 GFE | F4 E2 G2- | G2 FE D4) | C8 | z4 A4 | A8 | (d8 | c4 B2 A2) | A6 GF | G8- | G8 | z8 | %107
w: cer- do\- * * *|||tes,|sa-|cer-|do\-||tes, * *||||
 G6 G2 | G4 A4 | B4 B4 | z8 | z4 G4 | G6 G2 | A4 B4 | B4 z4 | z4 E4 | A4 G4 | E4 F4 | (D4 E4 | %119
w: lu- gi-|te, ean-|to res,||plan-|gi- te|mi- li-|tes|et|di- ci-|te, et|di\- *|
 F4) F4 | E4 z4 | E3 E E2 E2 | E4 !fermata!E4 | G3 G G2 G2 | G4 !fermata!G4 | G6 G2 | G2 G2 G4- | %127
w: * ci-|te:|Ma- xi- mi- li-|a- nus,|Ma- xi- mi- li-|a- nus,|re- qui-|e- scat in|
 G4 E4 | E8- | E8 | E8 | E8 |] %132
w: * pa-|ce.||||
V:2
 z8 | z8 | z8 | z8 | z8 | z8 | E8 | E4 E4 | F6 D2 | D4 F4 | E4 z2 E2 | E2 E2 D2 (E2 | %12
w: ||||||Quis|da- bit|o- cu-|lis no-|stris fon-|tem la- cry- ma\-|
 A,3 B, C3 D) | E4 z4 | z8 | E8- | E8 | E4 D4- | D2 C2 C4 | (C8 | G,8) | (A,6 G,2) | (C4 A,4 | %23
w: |rum||et||plo- ra\-|* bi- mus|co\-||ram *|Do\- *|
 B,4 C4 | E6 D2 | C2 B,2) A,4 | B,4 z4 | B,4 B,4- | B,2 G,2 G,4 | B,4 C4 | (B,2 G,2 A,4) | %31
w: ||* * mi-|no?|Ger- ma\-|* ni- a|quid plo-|ras? * *|
 (G,2 A,3 G,A,B, | C4) B,4 | B,4 E4- | E4 (C2 D2) | E8 | z4 E4- | E2 E2 E4- | E4 z4 | E4 C4 | %40
w: Mu\- * * * *|* si-|ca, cur|* si\- *|les?|Au\-|* stri- a,||cur in-|
 D4 (E3 D | C2) B,2 A,2 F,2 | G,4 (A,B,CD | E4) F4 | E4 C4 | z4 F4 | F4 E4 | D4 D4- | D2 C2 C4 | %49
w: du- ta *|* ve- ste re-|pro- ba, * * *|* re-|pro- ba|moe-|ro- re|con- su\-|* me- ris,|
 F4 F4 | E4 D4 | D6 C2 | C8 || z8 | z8 | z8 | z8 | E8 | F4 D4 | (E4 C4) | D8 | C4 z2 D2 | %62
w: moe- ro-|re con-|su- me-|ris?|||||Heu|no- bis,|Do\- *|mi-|ne de-|
 D2 D2 E4 | A,2 F2 FF F2 | D4 E4 | z8 | z8 | z2 E3 E E2 | D2 C2 F4 | E4 E4- | E2 A,2 E4 | %71
w: fe- cit no-|bis Ma- xi- mi- li-|a- nus!|||Gau- di- um|cor- dis no-|stri, no\-|* * stri|
 z2 C2 C4- | C2 C2 C4- | C4 C4 | (A,2 B,2 C4 | A,2 B,3 A, A,2- | A,2 ^G,^F, ^G,4) || %77
w: con- ver\-|* sum est|* in|lu\- * *|||
[M:3/4] A,4 z2 | E4 E2 | E2 D2 D2 | C6 | E4 E2 | E2 (C2 D2) | E6 ||[M:2/2] z8 | z4 A,4- | A,4 C4 | %87
w: ctum;|ce- ci-|dit co- ro-|na|ca- pi-|tis no\- *|stri.||Er\-|* go|
 D4 D2 D2- | D2 C2 (G4- | G2 FE D4 | C3 D E2) (F2- | FE/D/ E2) D4 | z8 | z8 | A,8 | C4 D4 | %96
w: u- lu- la\-|* te, pu\-||* * * e\-|* * * * ri,|||plo-|ra- te,|
 D4 C2 (E2- | E2 DC B,4) | E6 C2 | C6 A,2 | A,8 | (F,6 G,2) | (E,2 F,2 G,2 F,2) | (C6 D2 | E8) | %105
w: sa- cer- do\-||tes, plo-|ra- te,|sa-|cer\- *|do\- * * *|tes, *||
 z8 | z8 | z4 E4 | E2 E2 (C4 | D4) E4 | E4 z4 | z8 | E4 E2 E2 | C4 D4 | E4 z2 C2 | %115
w: ||lu-|gi- te, can\-|* to-|res,||plan- gi- te|no- bi-|les et|
 (B,2 A,2 G,2) G,2 | D4 G,4 | z2 C2 (F,3 G, | A,2 B,2 C4- | C2 B,A, B,2) A,2 | C4 z4 | C3 C C2 C2 | %122
w: di\- * * ci-|te, *|et di\- *||* * * * ci-|te:|Ma- xi- mi- li-|
 C4 !fermata!C4 | E3 E E2 E2 | E4 !fermata!E4 | z8 | z4 C4- | C2 C2 C2 C2 | (C8 | A,4) A,4- | %130
w: a- nus,|Ma- xi- mi- li-|a- nus,||re\-|* qui- e- scat|in|* pa\-|
 A,4 A,4- | A,8 |] %132
w: * ce.||
V:3
 z8 | z8 | A8 | A4 A4 | B6 G2 | G4 B4 | A4 z2 A2 | A2 A2 G2 A2 | D8- | D8 | z8 | z8 | z4 A4- | %13
w: ||Quis|da- bit|o- cu-|lis no-|stris fon-|tem la- cry- ma-|rum||||et|
 A4 c4 | B4 B4 | A8 | z4 E4- | E4 F4 | F4 (F4 | E3 D EF E2- | E2 DC D4) | E4 z2 E2 | G2 A2 F4 | %23
w: * plo-|ra- bi-|mus|co\-|* ram|Do- mi\-|||no? Ger-|ma- ni- a|
 G8 | (c4 B2 A2- | A2 G2 F4) | E8- | E8 | z8 | z8 | z8 | z8 | G8 | G4 G4 | G4 A4 | B8 | z4 c4- | %37
w: quid|plo\- * *||ras,||||||Mu-|si- ca,|cur si-|les?|Au\-|
 c2 c2 c4 | z4 G4 | (A2 B2 G2) c2- | c2 B2 (c4- | c2 d2) e2 f2 | d4 c2 (A2- | A2 B2 c2 d2) | %44
w: * stri- a,|cur|in\- * * du\-|* ta ve\-|* * ste re-|pro- ba, re\-||
 B4 A4 | z4 A4 | c4 B4 | A4 A4- | A2 G2 G4 | A4 c4 | B4 A4 | A6 G2 | G8 || B8 | c4 A4 | (B4 G4 | %56
w: pro- ba|moe-|ro- re|con- su\-|* me- ris,|moe- ro-|re con-|su- me-|ris?|Heu|no- bis,|Do\- *|
 A8) | (G4 A4 | G2 FE F4) | G8- | G8 | z8 | z4 z2 c2 | c2 c2 d4 | B8- | B8 | z2 A3 A A2 | %67
w: |mi- *||ne|||de-|fe- cit no-|bis||Ma- xi- mi-|
 G2 (c2 B4) | A8 | z2 A3 A A2 | (G2 c4) B2 | A8 | E4 G4- | G2 G2 (G2 E2) | F4 G2 (A2- | %75
w: li- a\- *|nus!|Gau- di- um|cor\- * dis|no-|stri con\-|* ver- sum *|est in lu\-|
 A2 F2 G2 F2- | FE E4 D2) ||[M:3/4] E4 z2 | c4 c2 | B2 A2 A2 | G4 z2 | A4 A2 | G2 A4 | B6 || %84
w: ||ctum;|ce- ci|dit co- ro-|na|ca- pi-|tis no-|stri.|
[M:2/2][K:treble-8] z8 | z8 | z8 | z8 | z4 E4- | E4 G4 | A4 A2 A2- | A2 G2 B4- | B2 A2 G4- | %93
w: ||||Er\-|* go|u- lu- la\-|* te, pu\-|* e- ri,|
 G4 z4 | z8 | z8 | z4 E4- | E4 G4 | A4 (A4 | G2 A3 GFE | F4) E2 (F2- | FEDC D4 | A4 B2 c2- | %103
w: |||plo\-|* ra-|te, sa\-||* cer- do\-|||
 c2 A2) (A4 | B4) z4 | G6 G2 | G4 A4 | B4 B4 | z8 | G6 G2 | G4 A4 | B4 B4 | z8 | z8 | z4 A4 | %115
w: * * tes,||lu- gi-|te, can-|to res,||plan- gi-|te no-|bi- les|||et|
 d4 c4 | A4 B4 | (G4 A4- | A2 F2 G2) (A2- | AGFE F4) | G4 z4 | A3 A A2 A2 | G4 !fermata!G4 | %123
w: di- ci-|te, et|di\- *|* * * ci\-||te:|Ma- xi- mi- li-|a- nus,|
 c3 c c2 c2 | B4 !fermata!B4 | z4 G4- | G2 G2 G2 G2 | G8 | E4 E4- | E8 | E8 | E8 |] %132
w: Ma- xi- mi- li-|a- nus,|re\-|* qui- e- scat|in|pa- ce.||||
V:4
 E,8 | E,4 E,4 | F,6 D,2 | D,4 F,4 | E,4 z2 E,2 | E,2 E,2 D,2 E,2 | A,,8 | z8 | z8 | z8 | z4 E,4- | %11
w: Quis|da- bit|o- cu-|lis no-|stris fon-|tem la- cry- ma-|rum||||la\-|
 E,4 G,4 | (F,6 E,D, | C,2 D,2 E,2 F,2) | G,8 | z4 A,4- | A,4 C4 | B,4 A,4- | A,4 A,,4- | %19
w: * cry-|ma\- * *||rum|et|* plo-|ra- bi\-|* mus|
 A,,4 C,4 | B,,4 B,,4 | A,,4 C,4 | C,4 D,4 | G,,4 C,4 | A,,4 E,2 F,2 | C,4 (D,4 | G,6) E,2 | %27
w: * co-|ram Do-|mi- no,|co- ram|Do- mi-|no, Do- mi-|no Do\-|* mi-|
 E,4 z4 | E,4 E,4- | E,2 E,2 C,4 | E,4 F,4 | E,2 C,2 D,4 | C,4 E,4- | E,2 E,2 C,4 | E,4 F,4 | E,8 | %36
w: no?|Ger- ma\-|* ni- a|quid plo-|ras, quid plo-|ras? Mu\-|* si- ca,|cur si-|les?|
 z4 C,4- | C,2 C,2 C,4- | C,4 C,4- | C,2 D,2 E,2 F,2 | D,4 C,2 A,,2- | A,,2 B,,2 C,2 D,2 | %42
w: Au\-|* stri- a,|* cur|* in- du- ta|ve- ste re\-|* pro- ba moe-|
 B,,4 A,,4 | (A,2 G,2) (F,2 D,2) | E,4 F,4 | z4 F,4 | F,4 G,4 | D,4 F,4- | F,2 C,2 C,4 | F,4 F,4 | %50
w: ro- re|con\- * su\- *|me- ris,|moe-|ro- re|con- su\-|* me- ris,|moe- ro-|
 G,4 D,4 | F,6 C,2 | C,8 || z8 | z8 | E,8 | F,4 D,4 | (E,4 C,4) | D,8 | C,8 | z8 | F,4 F,2 F,2 | %62
w: re con-|su- me-|ris?|||Heu|no- bis,|Do\- *|mi-|ne||de- fe- cit|
 G,4 E,4 | z2 F,2 F,2 F,F, | G,4 E,4 | z2 E,2 E,2 D,2 | (C,4 F,4) | E,8 | (F,4 D,4) | %69
w: no- bis|Ma- xi- mi- li-|a- nus!|Gau- di- um|cor\- *|dis|no\- *|
 E,2 A,,4 (A,,2 | E,2 F,2 E,4) | A,,4 z2 A,,2 | C,6 C,2 | C,4 C,4 | (D,4 C,4 | D,4 A,,4 | B,,8) || %77
w: * stri, no\-||stri con-|ver- sum|est in|lu\- *|||
[M:3/4] A,,4 z2 | A,,4 A,,2 | E,2 F,2 F,2 | C,4 z2 | A,,4 A,,2 | E,2 F,4 | E,6 ||[M:2/2] z8 | z8 | %86
w: ctum;|ce- ci-|dit co- ro-|na|ca- pi-|tis no-|stri.|||
 z8 | z8 | z8 | z8 | A,,8 | C,4 D,4 | D,2 D,4 C,2 | E,6 D,2 | D,8 | z8 | z8 | z8 | A,,8 | C,4 D,4 | %100
w: ||||Er-|go u-|lu- la- te,|pu- e-|ri,||||plo-|ra te,|
 D,4 C,2 (D,2- | D,C,B,,A,, B,,4) | A,,2 A,2 G,2 (A,2- | A,G,F,E, F,4) | E,8 | z4 E,4- | %106
w: sa- cer- do\-||tes, sa- cer- do\-||tes,|lu\-|
 E,2 E,2 C,4 | D,4 E,4 | E,4 z4 | z4 E,4- | E,2 E,2 C,4 | D,4 E,4 | E,4 z2 E,2 | A,4 G,4 | %114
w: * gi- te|can- to-|res.|plan\-|* gi- te|mi- li-|tes et|di- ci-|
 E,4 F,4 | D,4 E,4 | F,4 E,4- | E,4 D,4- | D,4 C,2 A,,2 | D,4 D,4 | C,4 z4 | A,,3 A,, A,,2 A,,2 | %122
w: te, et|di- ci-|te, et|* di\-|* ci- te,|di- ci-|te:|Ma- xi- mi- li-|
 C,4 !fermata!C,4 | C,3 C, C,2 C,2 | E,4 !fermata!E,4 | z8 | C,6 C,2 | C,2 C,2 C,4- | C,4 A,,4 | %129
w: a- nus,|Ma- xi- mi- li-|a- nus,||re- qui-|e- scat in|* pa-|
 A,,8- | A,,8 | A,,8 |] %132
w: ce.|||

